src/assets/icons/filters/categories/collecting_hover.svg

<svg width="48" height="60" viewBox="0 0 48 60" fill="none" xmlns="http://www.w3.org/2000/svg">
<path fill-rule="evenodd" clip-rule="evenodd" d="M47.9987 18.4396C47.9981 18.0108 47.8952 17.5884 47.6986 17.2073C47.5019 16.8262 47.2173 16.4976 46.8682 16.2486C46.632 16.0778 46.4399 15.8532 46.3077 15.5934C46.1756 15.3336 46.1072 15.0461 46.1083 14.7547C46.1083 14.1608 46.385 13.6167 46.8719 13.2607C47.2208 13.0108 47.505 12.6812 47.701 12.2993C47.897 11.9174 47.999 11.4943 47.9987 11.065C47.9983 10.6358 47.8956 10.2129 47.6989 9.83132C47.5023 9.44977 47.2175 9.12063 46.8682 8.87124C46.5534 8.6419 46.3193 8.31892 46.1992 7.94849C46.0791 7.57805 46.0793 7.17913 46.1996 6.80876C46.3199 6.4384 46.5542 6.11557 46.8691 5.88643C47.184 5.65729 47.5632 5.53358 47.9526 5.533V0H40.5753C40.5751 0.388758 40.4521 0.767523 40.224 1.0823C39.9958 1.39708 39.6742 1.63181 39.3048 1.75302C38.9354 1.87424 38.5372 1.87576 38.1669 1.75737C37.7966 1.63898 37.4731 1.40672 37.2426 1.09369C36.2319 -0.289559 33.8509 -0.28587 32.8439 1.09C32.1375 2.04905 30.5661 2.04537 29.8653 1.09369C28.8546 -0.289559 26.4735 -0.28587 25.4665 1.09C24.7602 2.04905 23.1888 2.04537 22.4879 1.09369C21.4772 -0.289559 19.0962 -0.28587 18.0892 1.09C17.3828 2.04905 15.8115 2.04537 15.1106 1.09369C14.0999 -0.289559 11.7189 -0.28587 10.7119 1.09C10.4819 1.40342 10.1588 1.63624 9.78868 1.75525C9.41858 1.87427 9.02035 1.87341 8.65077 1.7528C8.28118 1.6322 7.9591 1.398 7.73044 1.08359C7.50177 0.76918 7.3782 0.39061 7.37733 0.0018442H0V5.53484C0.385148 5.53621 0.760225 5.658 1.07271 5.88315C1.38519 6.10831 1.61943 6.42556 1.74263 6.79047C1.86583 7.15539 1.87181 7.5497 1.75974 7.91818C1.64768 8.28667 1.42317 8.61088 1.11767 8.84542C0.777021 9.10617 0.50159 9.44247 0.313078 9.82781C0.124565 10.2132 0.0281224 10.637 0.0313523 11.066C0.0313523 11.9494 0.42604 12.7591 1.11951 13.2903C1.58059 13.6407 1.84433 14.1755 1.84433 14.7547C1.84548 15.0392 1.78042 15.3202 1.65431 15.5753C1.52819 15.8304 1.34447 16.0527 1.11767 16.2246C0.777271 16.4852 0.50199 16.8212 0.313489 17.2062C0.124988 17.5912 0.0284086 18.0147 0.0313523 18.4433C0.0313523 19.3268 0.42604 20.1364 1.11951 20.6676C1.58059 21.018 1.84433 21.5529 1.84433 22.132C1.84548 22.4166 1.78042 22.6975 1.65431 22.9526C1.52819 23.2077 1.34447 23.43 1.11767 23.6019C0.777271 23.8625 0.50199 24.1985 0.313489 24.5835C0.124988 24.9685 0.0284086 25.392 0.0313523 25.8207C0.0313523 26.7041 0.42604 27.5137 1.11951 28.0449C1.58059 28.3953 1.84433 28.9302 1.84433 29.5093C1.84548 29.7939 1.78042 30.0748 1.65431 30.33C1.52819 30.5851 1.34447 30.8074 1.11767 30.9792C0.777271 31.2398 0.50199 31.5758 0.313489 31.9608C0.124988 32.3458 0.0284086 32.7693 0.0313523 33.198C0.0313523 34.0814 0.42604 34.8911 1.11951 35.4222C1.58059 35.7727 1.84433 36.3075 1.84433 36.8866C1.84548 37.1712 1.78042 37.4522 1.65431 37.7073C1.52819 37.9624 1.34447 38.1847 1.11767 38.3566C0.777271 38.6171 0.50199 38.9531 0.313489 39.3381C0.124988 39.7231 0.0284086 40.1466 0.0313523 40.5753C0.0313523 41.4587 0.42604 42.2684 1.11951 42.7996C1.58059 43.15 1.84433 43.6849 1.84433 44.264C1.84548 44.5486 1.78042 44.8295 1.65431 45.0846C1.52819 45.3397 1.34447 45.562 1.11767 45.7339C0.777021 45.9947 0.50159 46.331 0.313078 46.7163C0.124565 47.1017 0.0281224 47.5255 0.0313523 47.9545C0.0313523 48.8361 0.42604 49.6457 1.11951 50.1769C1.42514 50.4115 1.6497 50.7359 1.76172 51.1046C1.87373 51.4732 1.8676 51.8677 1.74417 52.2327C1.62074 52.5977 1.3862 52.915 1.07342 53.14C0.760646 53.365 0.385305 53.4865 0 53.4875V59.0205H7.37733C7.3782 58.6317 7.50177 58.2531 7.73044 57.9387C7.9591 57.6243 8.28118 57.3901 8.65077 57.2695C9.02035 57.1489 9.41858 57.1481 9.78868 57.2671C10.1588 57.3861 10.4819 57.6189 10.7119 57.9323C11.7632 59.3654 14.0557 59.3691 15.1088 57.9323C15.8133 56.9696 17.3828 56.9677 18.0892 57.9323C19.1405 59.3654 21.433 59.3691 22.4861 57.9323C23.1906 56.9696 24.7602 56.9677 25.4665 57.9323C26.5178 59.3654 28.8103 59.3691 29.8634 57.9323C30.568 56.9696 32.1375 56.9677 32.8439 57.9323C33.0946 58.2811 33.4248 58.5653 33.807 58.7613C34.1893 58.9573 34.6127 59.0595 35.0423 59.0595C35.4719 59.0595 35.8953 58.9573 36.2776 58.7613C36.6599 58.5653 36.99 58.2811 37.2408 57.9323C37.4708 57.6189 37.7939 57.3861 38.164 57.2671C38.5341 57.1481 38.9323 57.1489 39.3019 57.2695C39.6715 57.3901 39.9935 57.6243 40.2222 57.9387C40.4509 58.2531 40.5744 58.6317 40.5753 59.0205H47.9526V53.4875C47.5635 53.4861 47.1848 53.3619 46.8705 53.1324C46.5563 52.903 46.3225 52.5802 46.2027 52.21C46.0828 51.8398 46.083 51.4412 46.2032 51.0711C46.3234 50.701 46.5574 50.3784 46.8719 50.1492C47.2208 49.8993 47.505 49.5696 47.701 49.1878C47.897 48.8059 47.999 48.3828 47.9987 47.9535C47.9983 47.5243 47.8956 47.1014 47.6989 46.7198C47.5023 46.3383 47.2175 46.0091 46.8682 45.7597C46.632 45.589 46.4399 45.3644 46.3077 45.1046C46.1756 44.8448 46.1072 44.5573 46.1083 44.2658C46.1083 43.6701 46.385 43.1279 46.8719 42.7719C47.2208 42.5219 47.505 42.1923 47.701 41.8104C47.897 41.4286 47.999 41.0054 47.9987 40.5762C47.9983 40.147 47.8956 39.724 47.6989 39.3425C47.5023 38.9609 47.2175 38.6318 46.8682 38.3824C46.632 38.2116 46.4399 37.987 46.3077 37.7273C46.1756 37.4675 46.1072 37.1799 46.1083 36.8885C46.1083 36.2928 46.385 35.7505 46.8719 35.3946C47.2208 35.1446 47.505 34.815 47.701 34.4331C47.897 34.0512 47.999 33.6281 47.9987 33.1989C47.9983 32.7696 47.8956 32.3467 47.6989 31.9651C47.5023 31.5836 47.2175 31.2545 46.8682 31.0051C46.632 30.8343 46.4399 30.6097 46.3077 30.3499C46.1756 30.0901 46.1072 29.8026 46.1083 29.5112C46.1083 28.9154 46.385 28.3732 46.8719 28.0173C47.2208 27.7673 47.505 27.4377 47.701 27.0558C47.897 26.6739 47.999 26.2508 47.9987 25.8215C47.9983 25.3923 47.8956 24.9694 47.6989 24.5878C47.5023 24.2063 47.2175 23.8771 46.8682 23.6277C46.632 23.457 46.4399 23.2324 46.3077 22.9726C46.1756 22.7128 46.1072 22.4253 46.1083 22.1338C46.1083 21.5381 46.385 20.9959 46.8719 20.6399C47.5912 20.1143 48.0006 19.312 47.9987 18.4415" fill="#13C1AC" fill-opacity="0.4"/>
<path fill-rule="evenodd" clip-rule="evenodd" d="M23.9763 20.2877C26.0106 20.2877 27.665 21.9439 27.665 23.9763C27.665 26.0125 26.0106 27.665 23.9763 27.665C21.942 27.665 20.2877 26.0125 20.2877 23.9763C20.2877 21.9439 21.942 20.2877 23.9763 20.2877ZM47.9987 18.4396C48.0006 19.312 47.5893 20.1124 46.8737 20.6381C46.6363 20.808 46.4429 21.0323 46.3098 21.2922C46.1766 21.5521 46.1076 21.84 46.1083 22.132C46.1083 22.7277 46.385 23.2736 46.8682 23.6259C47.2179 23.875 47.503 24.2041 47.6999 24.5857C47.8967 24.9673 47.9996 25.3903 48 25.8197C48.0004 26.2491 47.8982 26.6723 47.702 27.0542C47.5057 27.4361 47.2211 27.7657 46.8719 28.0154C46.6348 28.1856 46.4418 28.4099 46.309 28.6698C46.1761 28.9296 46.1073 29.2175 46.1083 29.5093C46.1083 30.105 46.385 30.651 46.8682 31.0032C47.2179 31.2524 47.503 31.5814 47.6999 31.963C47.8967 32.3446 47.9996 32.7677 48 33.197C48.0004 33.6264 47.8982 34.0497 47.702 34.4316C47.5057 34.8135 47.2211 35.143 46.8719 35.3927C46.6348 35.5629 46.4418 35.7873 46.309 36.0471C46.1761 36.307 46.1073 36.5948 46.1083 36.8866C46.1083 37.4824 46.385 38.0283 46.8682 38.3806C47.2179 38.6297 47.503 38.9587 47.6999 39.3403C47.8967 39.7219 47.9996 40.145 48 40.5744C48.0004 41.0037 47.8982 41.427 47.702 41.8089C47.5057 42.1908 47.2211 42.5203 46.8719 42.7701C46.6348 42.9402 46.4418 43.1646 46.309 43.4244C46.1761 43.6843 46.1073 43.9721 46.1083 44.264C46.1083 44.8615 46.385 45.4038 46.8682 45.7579C47.2179 46.007 47.503 46.3361 47.6999 46.7177C47.8967 47.0992 47.9996 47.5223 48 47.9517C48.0004 48.3811 47.8982 48.8043 47.702 49.1862C47.5057 49.5681 47.2211 49.8977 46.8719 50.1474C46.5574 50.3765 46.3234 50.6992 46.2032 51.0693C46.083 51.4393 46.0828 51.8379 46.2027 52.2081C46.3225 52.5783 46.5563 52.9012 46.8705 53.1306C47.1848 53.36 47.5635 53.4843 47.9526 53.4856V59.0186H40.5753C40.5744 58.6299 40.4509 58.2513 40.2222 57.9369C39.9935 57.6225 39.6715 57.3883 39.3019 57.2677C38.9323 57.1471 38.5341 57.1462 38.164 57.2652C37.7939 57.3842 37.4708 57.6171 37.2408 57.9305C36.9908 58.2802 36.6611 58.5653 36.2789 58.7621C35.8967 58.9589 35.4731 59.0618 35.0433 59.0622C34.6134 59.0625 34.1896 58.9604 33.8071 58.7642C33.4246 58.568 33.0944 58.2835 32.8439 57.9342C32.1375 56.9696 30.568 56.9696 29.8634 57.9305C28.8122 59.3691 26.5178 59.3654 25.4665 57.9342C24.7602 56.9696 23.1906 56.9696 22.4861 57.9305C21.4348 59.3691 19.1405 59.3654 18.0892 57.9342C17.3828 56.9696 15.8133 56.9696 15.1088 57.9305C14.0575 59.3691 11.7632 59.3654 10.7119 57.9342C10.482 57.6209 10.159 57.3881 9.78912 57.2691C9.4192 57.15 9.02114 57.1507 8.65164 57.2711C8.28214 57.3914 7.96005 57.6253 7.73124 57.9395C7.50244 58.2536 7.37859 58.6319 7.37733 59.0205H0V53.4875C0.385305 53.4865 0.760646 53.365 1.07342 53.14C1.3862 52.915 1.62074 52.5977 1.74417 52.2327C1.8676 51.8677 1.87373 51.4732 1.76172 51.1046C1.6497 50.7359 1.42514 50.4115 1.11951 50.1769C0.778132 49.9159 0.50212 49.579 0.313271 49.193C0.124422 48.807 0.0279083 48.3824 0.0313523 47.9526C0.0283395 47.5238 0.125078 47.1001 0.313927 46.715C0.502776 46.33 0.778563 45.9941 1.11951 45.7339C1.34573 45.562 1.52894 45.3399 1.65472 45.0852C1.7805 44.8304 1.84541 44.5499 1.84433 44.2658C1.84569 43.9817 1.78091 43.7011 1.65511 43.4463C1.52931 43.1915 1.34594 42.9694 1.11951 42.7977C0.778382 42.5369 0.502522 42.2004 0.313684 41.8147C0.124846 41.429 0.0281948 41.0047 0.0313523 40.5753C0.0283395 40.1464 0.125078 39.7227 0.313927 39.3377C0.502776 38.9526 0.778563 38.6168 1.11951 38.3566C1.34598 38.1845 1.52934 37.9621 1.65513 37.707C1.78092 37.4519 1.84569 37.1711 1.84433 36.8866C1.84512 36.6031 1.78006 36.3233 1.65428 36.0691C1.5285 35.815 1.34544 35.5936 1.11951 35.4222C0.778132 35.1612 0.50212 34.8244 0.313271 34.4384C0.124422 34.0523 0.0279083 33.6277 0.0313523 33.198C0.0283395 32.7691 0.125078 32.3454 0.313927 31.9604C0.502776 31.5753 0.778563 31.2394 1.11951 30.9792C1.34598 30.8072 1.52934 30.5848 1.65513 30.3297C1.78092 30.0746 1.84569 29.7937 1.84433 29.5093C1.84512 29.2258 1.78006 28.9459 1.65428 28.6918C1.5285 28.4377 1.34544 28.2162 1.11951 28.0449C0.778132 27.7839 0.50212 27.4471 0.313271 27.061C0.124422 26.675 0.0279083 26.2504 0.0313523 25.8207C0.0283395 25.3918 0.125078 24.9681 0.313927 24.583C0.502776 24.198 0.778563 23.8621 1.11951 23.6019C1.34598 23.4298 1.52934 23.2075 1.65513 22.9524C1.78092 22.6973 1.84569 22.4164 1.84433 22.132C1.84512 21.8484 1.78006 21.5686 1.65428 21.3145C1.5285 21.0604 1.34544 20.8389 1.11951 20.6676C0.778132 20.4066 0.50212 20.0697 0.313271 19.6837C0.124422 19.2977 0.0279083 18.873 0.0313523 18.4433C0.0283395 18.0145 0.125078 17.5908 0.313927 17.2057C0.502776 16.8206 0.778563 16.4848 1.11951 16.2246C1.34573 16.0527 1.52894 15.8306 1.65472 15.5759C1.7805 15.3211 1.84541 15.0406 1.84433 14.7565C1.84569 14.4723 1.78091 14.1918 1.65511 13.937C1.52931 13.6821 1.34594 13.4601 1.11951 13.2884C0.778632 13.0278 0.502924 12.6915 0.314098 12.3062C0.125271 11.9209 0.0284811 11.4969 0.0313523 11.0678C0.0277657 10.6384 0.124228 10.2139 0.313099 9.82818C0.50197 9.44244 0.778062 9.10597 1.11951 8.84542C1.42577 8.6111 1.65097 8.28677 1.7635 7.91794C1.87603 7.54911 1.87025 7.15431 1.74697 6.78893C1.62369 6.42356 1.38909 6.10596 1.0761 5.88071C0.763117 5.65546 0.387456 5.53386 0.00184332 5.533V0H7.37917C7.38057 0.388286 7.50435 0.766248 7.73292 1.08013C7.96149 1.39402 8.2832 1.62785 8.65232 1.74837C9.02143 1.86889 9.41914 1.86996 9.7889 1.75143C10.1587 1.6329 10.4816 1.40081 10.7119 1.08816C11.7189 -0.285871 14.0999 -0.289559 15.1106 1.09369C15.8115 2.04721 17.3828 2.0509 18.0892 1.09C19.0962 -0.287715 21.4772 -0.291404 22.4879 1.09369C23.1888 2.04721 24.7602 2.0509 25.4665 1.09C26.4735 -0.287715 28.8546 -0.291404 29.8653 1.09369C30.5661 2.04721 32.1375 2.0509 32.8439 1.09C33.8509 -0.287715 36.2319 -0.291404 37.2426 1.09369C37.473 1.40659 37.7963 1.63879 38.1665 1.75723C38.5366 1.87567 38.9346 1.8743 39.3039 1.75331C39.6732 1.63233 39.9949 1.3979 40.2232 1.08342C40.4515 0.768941 40.5747 0.390445 40.5753 0.0018442H47.9526V5.53484C47.5632 5.53543 47.184 5.65914 46.8691 5.88827C46.5542 6.11741 46.3199 6.44024 46.1996 6.81061C46.0793 7.18097 46.0791 7.57989 46.1992 7.95033C46.3193 8.32077 46.5534 8.64375 46.8682 8.87308C47.2179 9.12222 47.503 9.45128 47.6999 9.83286C47.8967 10.2144 47.9996 10.6375 48 11.0669C48.0004 11.4963 47.8982 11.9195 47.702 12.3014C47.5057 12.6833 47.2211 13.0129 46.8719 13.2626C46.6348 13.4328 46.4418 13.6571 46.309 13.917C46.1761 14.1768 46.1073 14.4647 46.1083 14.7565C46.1083 15.3504 46.385 15.8945 46.8682 16.2504C47.5875 16.7705 47.9969 17.571 47.9987 18.4415V18.4396ZM38.731 53.4893C40.3595 53.4893 41.811 54.2086 42.8254 55.3337H43.8324C42.9217 54.321 42.4184 53.0069 42.4196 51.645C42.4196 50.2765 42.9324 48.9596 43.8306 47.9563C42.924 46.9413 42.4219 45.6286 42.4196 44.2677C42.4196 42.8992 42.9324 41.5823 43.8306 40.579C42.924 39.5639 42.4219 38.2513 42.4196 36.8903C42.4196 35.5218 42.9324 34.205 43.8306 33.2017C42.924 32.1866 42.4219 30.8739 42.4196 29.513C42.4196 28.1445 42.9324 26.8277 43.8306 25.8243C42.924 24.8093 42.4219 23.4966 42.4196 22.1357C42.4196 20.7672 42.9324 19.4503 43.8306 18.447C42.924 17.432 42.4219 16.1193 42.4196 14.7583C42.4196 13.388 42.9324 12.073 43.8306 11.0697C42.924 10.0546 42.4219 8.74195 42.4196 7.38102C42.4196 5.96273 42.9545 4.66985 43.8324 3.69235H42.8254C41.811 4.81371 40.3595 5.53669 38.731 5.53669C37.3697 5.53425 36.0569 5.03144 35.0423 4.12393C33.0265 5.92031 29.6753 5.91662 27.665 4.12393C25.6491 5.92031 22.2998 5.91662 20.2877 4.12393C18.2718 5.92031 14.9206 5.91662 12.9103 4.12393C11.8951 5.03017 10.5825 5.53223 9.22166 5.53484C7.59312 5.53484 6.14163 4.81555 5.12724 3.69051H4.09442C5.01396 4.69706 5.52658 6.00945 5.53272 7.37278C5.53885 8.7361 5.03806 10.0531 4.12762 11.0678C5.03134 12.073 5.533 13.3733 5.533 14.7565C5.533 16.1434 5.02949 17.4419 4.12762 18.4452C5.03134 19.4485 5.533 20.7506 5.533 22.1338C5.533 23.5208 5.02949 24.8192 4.12762 25.8225C5.03134 26.8258 5.533 28.1279 5.533 29.5112C5.533 30.8981 5.02949 32.1965 4.12762 33.1998C5.03134 34.2031 5.533 35.5052 5.533 36.8885C5.533 38.2754 5.02949 39.5738 4.12762 40.5772C5.03134 41.5805 5.533 42.8826 5.533 44.2658C5.533 45.6528 5.02949 46.9512 4.12762 47.9545C5.03923 48.9687 5.54078 50.2859 5.53465 51.6496C5.52851 53.0132 5.01512 54.3258 4.09442 55.3318H5.12724C6.14163 54.2105 7.59312 53.4875 9.22166 53.4875C10.5828 53.4903 11.8955 53.993 12.9103 54.9002C14.9206 53.1057 18.2773 53.1057 20.2877 54.9002C22.298 53.1057 25.6547 53.1057 27.665 54.9002C29.6753 53.1057 33.032 53.1057 35.0423 54.9002C36.0572 53.9934 37.37 53.4913 38.731 53.4893V53.4893ZM35.5845 9.22535C37.3201 9.22535 38.731 10.6344 38.731 12.3681V46.6542C38.731 48.3879 37.3201 49.8007 35.5845 49.8007H12.3681C11.5338 49.8002 10.7337 49.4685 10.1438 48.8786C9.5538 48.2886 9.22215 47.4886 9.22166 46.6542V12.3681C9.22166 10.6344 10.6326 9.22535 12.3681 9.22535H35.5845V9.22535ZM35.0423 46.112V42.8844C35.0423 40.9589 30.8317 38.2736 23.9763 38.2736C17.1209 38.2736 12.9103 40.9589 12.9103 42.8844V46.112H35.0423ZM35.0423 12.914H12.9103V37.2906C15.5717 35.6141 19.4725 34.5831 23.9763 34.5831C28.4802 34.5831 32.3809 35.6159 35.0423 37.2906V12.914V12.914ZM23.9763 31.3573C19.9077 31.3573 16.599 28.0486 16.599 23.98C16.599 19.9096 19.9077 16.6027 23.9763 16.6027C28.0449 16.6027 31.3536 19.9096 31.3536 23.98C31.3536 28.0486 28.0449 31.3573 23.9763 31.3573Z" fill="#13C1AC"/>
<path fill-rule="evenodd" clip-rule="evenodd" d="M23.9764 20.2877C26.0107 20.2877 27.6651 21.9439 27.6651 23.9763C27.6651 26.0125 26.0107 27.665 23.9764 27.665C21.9421 27.665 20.2877 26.0125 20.2877 23.9763C20.2877 21.9439 21.9421 20.2877 23.9764 20.2877ZM35.0424 46.1083H12.9104V42.8807C12.9104 40.9571 17.121 38.2699 23.9764 38.2699C30.8318 38.2699 35.0424 40.9571 35.0424 42.8807V46.1083Z" fill="white" fill-opacity="0.7"/>
</svg>

<svg width="48" height="60" viewBox="0 0 48 60" fill="none" xmlns="http://www.w3.org/2000/svg"><path fill-rule="evenodd" clip-rule="evenodd" d="M47.999 18.44a2.696 2.696 0 00-1.13-2.191 1.836 1.836 0 01-.76-1.494c0-.594.276-1.138.763-1.494a2.697 2.697 0 00-.004-4.39 1.846 1.846 0 011.085-3.338V0h-7.378a1.846 1.846 0 01-3.332 1.094c-1.011-1.384-3.392-1.38-4.4-.004-.706.959-2.277.955-2.978.004-1.01-1.384-3.391-1.38-4.398-.004-.707.959-2.278.955-2.98.004-1.01-1.384-3.39-1.38-4.398-.004-.706.959-2.277.955-2.978.004-1.011-1.384-3.392-1.38-4.4-.004A1.846 1.846 0 017.378.002H0v5.533a1.846 1.846 0 011.118 3.31A2.77 2.77 0 00.03 11.066c0 .883.395 1.693 1.089 2.224.46.35.724.886.724 1.465a1.835 1.835 0 01-.726 1.47A2.77 2.77 0 00.03 18.443c0 .884.395 1.693 1.089 2.225.46.35.724.885.724 1.464a1.835 1.835 0 01-.726 1.47A2.77 2.77 0 00.03 25.82c0 .883.395 1.693 1.089 2.224.46.35.724.885.724 1.464a1.836 1.836 0 01-.726 1.47A2.77 2.77 0 00.03 33.198c0 .883.395 1.693 1.089 2.224.46.35.724.886.724 1.465a1.835 1.835 0 01-.726 1.47A2.77 2.77 0 00.03 40.575c0 .884.395 1.693 1.089 2.225.46.35.724.885.724 1.464a1.835 1.835 0 01-.726 1.47 2.771 2.771 0 00-1.087 2.22c0 .882.395 1.692 1.089 2.223A1.846 1.846 0 010 53.487v5.533h7.377a1.846 1.846 0 013.335-1.088c1.051 1.433 3.344 1.437 4.397 0 .704-.962 2.274-.964 2.98 0 1.052 1.433 3.344 1.437 4.397 0 .705-.962 2.274-.964 2.98 0 1.052 1.433 3.344 1.437 4.397 0 .705-.962 2.275-.964 2.98 0a2.708 2.708 0 004.398 0 1.846 1.846 0 013.334 1.088h7.378v-5.533a1.846 1.846 0 01-1.081-3.338 2.698 2.698 0 00-.004-4.39 1.835 1.835 0 01-.76-1.493c0-.596.277-1.138.764-1.494a2.699 2.699 0 00-.004-4.39 1.837 1.837 0 01-.76-1.493c0-.596.277-1.139.764-1.494a2.699 2.699 0 00-.004-4.39 1.836 1.836 0 01-.76-1.494c0-.596.277-1.138.764-1.494a2.699 2.699 0 00-.004-4.39 1.835 1.835 0 01-.76-1.493c0-.596.277-1.138.764-1.494a2.695 2.695 0 001.127-2.198" fill="#13C1AC" fill-opacity=".4"/><path fill-rule="evenodd" clip-rule="evenodd" d="M23.976 20.288a3.694 3.694 0 013.689 3.688 3.691 3.691 0 01-3.689 3.689 3.691 3.691 0 01-3.688-3.689 3.693 3.693 0 013.688-3.688zM48 18.44a2.701 2.701 0 01-1.125 2.198 1.83 1.83 0 00-.766 1.494c0 .596.277 1.142.76 1.494a2.696 2.696 0 01.004 4.39 1.831 1.831 0 00-.764 1.493c0 .596.277 1.142.76 1.494a2.697 2.697 0 01.004 4.39 1.832 1.832 0 00-.764 1.494c0 .595.277 1.141.76 1.494a2.696 2.696 0 01.004 4.39 1.83 1.83 0 00-.764 1.493c0 .597.277 1.14.76 1.494a2.696 2.696 0 01.004 4.39 1.846 1.846 0 001.08 3.338v5.533h-7.377a1.846 1.846 0 00-3.334-1.088 2.704 2.704 0 01-4.397.003c-.706-.964-2.276-.964-2.98-.003-1.052 1.438-3.346 1.434-4.398.003-.706-.964-2.275-.964-2.98-.003-1.051 1.438-3.346 1.434-4.397.003-.706-.964-2.276-.964-2.98-.003-1.052 1.438-3.346 1.434-4.397.003a1.846 1.846 0 00-3.335 1.087H0v-5.534a1.846 1.846 0 001.12-3.31A2.772 2.772 0 01.03 47.953a2.767 2.767 0 011.089-2.22 1.836 1.836 0 00.724-1.467 1.831 1.831 0 00-.724-1.468A2.771 2.771 0 01.03 40.575a2.766 2.766 0 011.089-2.218 1.835 1.835 0 00.724-1.47 1.832 1.832 0 00-.724-1.465A2.772 2.772 0 01.03 33.198a2.766 2.766 0 011.089-2.219 1.834 1.834 0 00.724-1.47 1.831 1.831 0 00-.724-1.464A2.771 2.771 0 01.03 25.82 2.767 2.767 0 011.12 23.6a1.835 1.835 0 00.724-1.469 1.831 1.831 0 00-.724-1.464A2.772 2.772 0 01.03 18.443a2.767 2.767 0 011.089-2.218 1.836 1.836 0 00.724-1.469 1.831 1.831 0 00-.724-1.468 2.772 2.772 0 01-1.089-2.22A2.767 2.767 0 011.12 8.845 1.846 1.846 0 00.002 5.533V0h7.377a1.846 1.846 0 003.333 1.088C11.719-.286 14.1-.29 15.11 1.094c.7.953 2.272.957 2.978-.004 1.007-1.378 3.388-1.381 4.399.004.7.953 2.272.957 2.979-.004 1.007-1.378 3.388-1.381 4.398.004.701.953 2.273.957 2.979-.004 1.007-1.378 3.388-1.381 4.399.004A1.846 1.846 0 0040.575.002h7.378v5.533a1.846 1.846 0 00-1.085 3.338 2.697 2.697 0 01.004 4.39 1.831 1.831 0 00-.764 1.494c0 .593.277 1.138.76 1.493.72.52 1.129 1.321 1.13 2.192v-.002zM38.73 53.49c1.628 0 3.08.719 4.094 1.844h1.007a5.51 5.51 0 01-1.412-3.689c0-1.369.512-2.685 1.41-3.689a5.551 5.551 0 01-1.41-3.688c0-1.369.512-2.686 1.41-3.689a5.551 5.551 0 01-1.41-3.689c0-1.368.512-2.685 1.41-3.688a5.552 5.552 0 01-1.41-3.689c0-1.369.512-2.685 1.41-3.689a5.551 5.551 0 01-1.41-3.688c0-1.369.512-2.686 1.41-3.689a5.551 5.551 0 01-1.41-3.689c0-1.37.512-2.685 1.41-3.688a5.552 5.552 0 01-1.41-3.689c0-1.418.535-2.711 1.412-3.689h-1.007c-1.014 1.122-2.466 1.845-4.094 1.845a5.548 5.548 0 01-3.689-1.413c-2.016 1.796-5.367 1.793-7.377 0-2.016 1.796-5.365 1.793-7.377 0-2.016 1.796-5.367 1.793-7.378 0a5.555 5.555 0 01-3.688 1.41c-1.629 0-3.08-.718-4.095-1.843H4.094a5.496 5.496 0 01.034 7.377 5.488 5.488 0 011.405 3.689 5.487 5.487 0 01-1.405 3.688 5.484 5.484 0 011.405 3.689 5.487 5.487 0 01-1.405 3.689 5.484 5.484 0 011.405 3.688A5.487 5.487 0 014.128 33.2a5.484 5.484 0 011.405 3.688 5.487 5.487 0 01-1.405 3.69 5.484 5.484 0 011.405 3.688 5.487 5.487 0 01-1.405 3.689 5.49 5.49 0 01-.034 7.377h1.033c1.015-1.121 2.466-1.845 4.095-1.845A5.552 5.552 0 0112.91 54.9c2.01-1.794 5.367-1.794 7.378 0 2.01-1.794 5.367-1.794 7.377 0 2.01-1.794 5.367-1.794 7.377 0a5.548 5.548 0 013.689-1.41zM35.584 9.224a3.147 3.147 0 013.147 3.143v34.286a3.15 3.15 0 01-3.147 3.147H12.368a3.148 3.148 0 01-3.146-3.147V12.368a3.147 3.147 0 013.146-3.143h23.216zm-.542 36.887v-3.228c0-1.925-4.21-4.61-11.066-4.61-6.855 0-11.066 2.685-11.066 4.61v3.228h22.132zm0-33.198H12.91v24.377c2.662-1.677 6.563-2.708 11.066-2.708 4.504 0 8.405 1.033 11.066 2.708V12.914zM23.976 31.357c-4.068 0-7.377-3.308-7.377-7.377a7.384 7.384 0 017.377-7.377 7.384 7.384 0 017.378 7.377c0 4.069-3.31 7.377-7.378 7.377z" fill="#13C1AC"/><path fill-rule="evenodd" clip-rule="evenodd" d="M23.976 20.288a3.694 3.694 0 013.69 3.688 3.691 3.691 0 01-3.69 3.689 3.691 3.691 0 01-3.688-3.689 3.694 3.694 0 013.688-3.688zm11.066 25.82H12.91v-3.227c0-1.924 4.211-4.611 11.066-4.611 6.856 0 11.066 2.687 11.066 4.61v3.228z" fill="#fff" fill-opacity=".7"/></svg>
